X:1111
M:C
L:1/8
Q:1/4=104
K:D
 A|d2d2  d>e f>e|d2D2  D2 d>e      |f2  f2          f>g  a>g     |f3/g//f// e2          z2
ag|f2f>e d2  b>a|g2g>f e2 A2       |d>c d>g         f>a  a/g/f/e/|d2        z2          z2
   afdA  FA``df |afba Hg2 g3/a//b//|a2  b3/c'//d'// a<f Te```d   |f>a       a/g/f/e/ {e}d3 |]

